components/ui-node-icon/src/output/output.medium.svg

<svg width="24" height="24" viewBox="0 0 24 24" fill="none" xmlns="http://www.w3.org/2000/svg">
  <path fill-rule="evenodd" clip-rule="evenodd" d="M5 2C3.34315 2 2 3.34315 2 5V19C2 20.6569 3.34315 22 5 22H10.7084C9.04751 20.5341 8 18.3894 8 16C8 11.5817 11.5817 8 16 8C16.6906 8 17.3608 8.08751 18 8.25204V5C18 3.34315 16.6569 2 15 2H5Z" fill="var(--tbl--colors--icons--output--secondary)"/>
  <path fill-rule="evenodd" clip-rule="evenodd" d="M16 24C20.4183 24 24 20.4183 24 16C24 11.5817 20.4183 8 16 8C11.5817 8 8 11.5817 8 16C8 20.4183 11.5817 24 16 24ZM15 13C15 12.4477 15.4477 12 16 12C16.5523 12 17 12.4477 17 13V16.5858L17.2929 16.2929C17.6834 15.9024 18.3166 15.9024 18.7071 16.2929C19.0976 16.6834 19.0976 17.3166 18.7071 17.7071L16.7071 19.7071C16.5196 19.8946 16.2652 20 16 20C15.7348 20 15.4804 19.8946 15.2929 19.7071L13.2929 17.7071C12.9024 17.3166 12.9024 16.6834 13.2929 16.2929C13.6834 15.9024 14.3166 15.9024 14.7071 16.2929L15 16.5858V13Z" fill="var(--tbl--colors--icons--output--primary)"/>
</svg>

<svg xmlns="http://www.w3.org/2000/svg" width="24" height="24" fill="none" viewBox="0 0 24 24">
  <path fill="var(--tbl--colors--icons--output--secondary)" fill-rule="evenodd" d="M5 2a3 3 0 0 0-3 3v14a3 3 0 0 0 3 3h5.708A8 8 0 0 1 18 8.252V5a3 3 0 0 0-3-3H5Z" clip-rule="evenodd"/>
  <path fill="var(--tbl--colors--icons--output--primary)" fill-rule="evenodd" d="M16 24a8 8 0 1 0 0-16 8 8 0 0 0 0 16Zm-1-11a1 1 0 1 1 2 0v3.586l.293-.293a1 1 0 0 1 1.414 1.414l-2 2a1 1 0 0 1-1.414 0l-2-2a1 1 0 0 1 1.414-1.414l.293.293V13Z" clip-rule="evenodd"/>
</svg>
